demos/KANBAN/public/icons/Logo.svg

<svg width="48" height="48" viewBox="0 0 48 48" fill="none" xmlns="http://www.w3.org/2000/svg">
<path d="M24 3.97382L44.7846 14.9804V36.9935L24 48L3.21539 36.9935V14.9804L24 3.97382Z" fill="#009ED8"/>
<path d="M14.3555 31.6876V12.0824C16.592 9.53199 18.6374 11.0197 19.3806 12.0824V21.207L42.4834 0.0993356C45.6476 -0.494318 46.1391 1.72088 45.9892 2.90269L14.3555 31.6876Z" fill="#0ACF83"/>
<path d="M14.3555 41.7611V35.5538L19.9253 30.7197L23.2193 33.6311L14.3555 41.7611Z" fill="white"/>
<path d="M36.4584 41.4139L22.2012 28.3576L35.6765 15.888C39.5095 15.4925 39.5095 17.8472 39.0304 19.0741L28.9322 28.3576L40.7824 39.1222L36.4584 41.4139Z" fill="white"/>
</svg>

<svg xmlns="http://www.w3.org/2000/svg" width="48" height="48" fill="none"><path fill="#009ED8" d="M24 3.974 44.785 14.98v22.013L24 48 3.215 36.993V14.98L24 3.974Z"/><path fill="#0ACF83" d="M14.355 31.688V12.082c2.237-2.55 4.282-1.062 5.026 0v9.125L42.483.099c3.165-.593 3.656 1.622 3.506 2.804L14.356 31.688Z"/><path fill="#fff" d="M14.355 41.761v-6.207l5.57-4.834 3.294 2.911-8.864 8.13ZM36.458 41.414 22.201 28.358l13.475-12.47c3.834-.396 3.834 1.96 3.354 3.186l-10.098 9.284 11.85 10.764-4.324 2.292Z"/></svg>
